X:1
T: Huntly Lodge
C:William Marshall
R:Strathspey
Q: 128
K:Bb
M:4/4
L:1/16
|:F4|BB3 B4 c3A B2F2|cc3 c3d e3c d2B2|d2f2 e2g2 c2e2 d2f2|G3c c3d edcB A2F2|
BB3 B4 c3A B2F2|cc3 c3d e3c d2B2|d2f2 e2g2 c2e2 d2f2|F3B ABcA B4:|
|:A1/2B1/2c1/2d1/2e1/2f1/2g1/2a2|bagf gfec e2E2 E2e2|gfed fedc d2B,2 B,2d2|e2C2 C2e2 d2B,2 B,2d2|
G3c edcB B2A2 G2F2|B2f2 d2B2 E2g2 e2c2|db3 f3d cBAG F2E2|D2F2 D2F2 E2G2 E2G2|F3B ABcA G4:|
